X:1
T:The Meeting in the Air
T:The Meeting in the Air
T:Isaiah Guyman Martin
T:Isaiah Guyman Martin, 1906
T:Public Domain Courtesy of the Cyber Hymnal™
T:Public Domain Courtesy of the Cyber Hymnal™
C:Isaiah Guyman Martin
Z:Public Domain
Z:Courtesy of the Cyber Hymnal™
%%score ( 1 2 ) 3
L:1/8
Q:1/4=90
M:4/4
K:G
V:1 treble 
V:2 treble 
V:3 bass 
V:1
 [GB]>[Ac] | [Bd]>[Bd] [Bd]>[ce] [Bd]<[GB] G>[FA] | [GB]>[GB] [GB]>[DG] !fermata![GB]2 [DG]>[DA] | %3
w: 1.~There is|soon to be a meet- ing With our|Sav- ior in the air, For He’s|
w: 2.~See the|pa- tri- archs and pro- phets Com- ing|forth from burst- ing tombs, They are|
w: 3.~There is|Mo- ses from Mount Ne- bo, There is|Dan- iel from the Cave, They are|
w: 4.~Still they|ga- ther, see them com- ing, From the|mis- sion fields a- far, With the|
w: 5.~Are you|rea- dy for the meet- ing With our|Sav- ior in the air? If your|
 [DB]>[DA] [DG]>[Ge] [Gd]<[DB] [DG]>[DA] | [GB]>[FA] [FA]>[GB] [FA]2 [GB]>[Ac] | %5
w: gone to realms of glo- ry, There our|man- sions to pre- pare; He is|
w: com- ing to this meet- ing, And they’re|com- ing ve- ry soon; There comes|
w: march- ing in the fore- front, While the|hosts their ban- ners wave; O what|
w: pil- grims from all na- tions, And the|mar- tyrs in the war; See St.|
w: heart is pure and ho- ly, You will|be no strang- er there; He is|
 [Bd]>[Bd] [Bd]>[ce] [Bd]<[GB] G>[FA] | [GB]>[GB] [GB]>[DG] !fermata![GB]2 [DG]>[DA] | %7
w: com- ing back to meet us, With a|host of an- gels fair, And there’s|
w: A- bra- ham and I- saac, With their|kin- dred ev- ery- where, There is|
w: joy to see them com- ing, To the|meet- ing in the air! There is|
w: Paul, the great a- pos- tle, In his|robes made white and fair, I am|
w: com- ing soon, my bro- ther, With a|host of an- gels fair, And I’m|
 [DB]>[DA] [DG]>[Ge] [Gd]<[DB] [DG]>[DA] | [GB]2 [FA]2 [DG]2 |:"^Refrain" [GB]>[Ac] | %10
w: sure to be some shout- ing When we|all meet there.||
w: sure to be some shout- ing When we|all get there.||
w: sure to be some shout- ing When they|all get there.|When we|
w: sure there’ll be some shout- ing When they|all get there.||
w: sure there’ll be some shout- ing When we|all meet there.||
 [Bd]2 [Bd]2 [Bd]2 G>[FA] | [GB][GB][GB][GB] [GB]2 [DG]>[DA] |1 %12
w: ||
w: ||
w: all meet there, At the|meet- ing in the air, There is|
w: ||
w: ||
 [DB]>[DA] [DG]>[Ge] [Gd]<[GB] [DG]>[DA] | [DB]2 [DA]2 [DA]2 :|2 [DG]>[DA] || %15
w: |||
w: |||
w: sure to be some shout- ing When we|all meet there;|when we|
w: |||
w: |||
 [GB]2 [FA]2 !fermata!G2 |] %16
w: |
w: |
w: all meet there.|
w: |
w: |
V:2
 x2 | x6 G3/2 x/ | x8 | x8 | x8 | x6 G3/2 x/ | x8 | x8 | x6 |: x2 | x6 G3/2 x/ | x8 |1 x8 | x6 :|2 %14
 x2 || x4 G2 |] %16
V:3
 [G,,G,]>[G,,G,] | [G,,G,]>[G,,G,] [G,,G,]>[G,,G,] [G,,G,]<[G,,G,] [G,B,]>[G,C] | %2
 [G,D]>[G,D] [G,D]>[G,B,] !fermata![G,D]2 [G,B,]>[G,C] | %3
 [G,D]>[G,C] [G,B,]>[G,C] [G,B,]<[G,D] [G,B,]>[G,C] | [D,D]>[D,D] [D,D]>[D,D] [D,D]2 [G,D]>[G,D] | %5
 [G,D]>[G,D] [G,D]>[G,C] [G,D]<[G,D] [G,B,]>[G,C] | %6
 [G,D]>[G,D] [G,D]>[G,B,] !fermata![G,D]2 [G,B,]>[G,C] | %7
 [G,D]>[G,C] [G,B,]>[G,C] [G,B,]<[G,D] [G,B,]>[G,C] | [D,D]2 [D,C]2 [G,,B,]2 |: [G,,G,]>[G,,G,] | %10
 [G,,G,]2 [G,,G,]2 [G,,G,]2 [G,B,]>[G,C] | [G,D][G,D][G,D][G,D] [G,D]2 [G,B,]>[G,C] |1 %12
 [G,D]>[G,C] [G,B,]>[G,C] [G,B,]<[G,D] [G,B,]>[G,C] | [D,G,]2 [D,F,]2 [D,F,]2 :|2 [G,B,]>[G,C] || %15
 [D,D]2 [D,C]2 !fermata![G,B,]2 |] %16

